X:3557
T:Last House in Connacht, The
O:england
R:reel
D:Paddy Glackin: In Full Spate.
M:C|
K:Dmix
fddc dcAB|c2dB cAGE|D2 (3FED ADFD|(3EFG AB cdeg|
fddc dcAB|c2dB cAGE|D2 (3FED FGAB|cAGE EDD2:|
|:fdd^c defg|ad~d2 adfd|eccB cdef|gc~c2 g2eg|
fddc dcAB|c2dB cAGE|D2 (3FED FGAB|cAGE EDD2:|
"Variations:"
fd~d2 dcAB|c2Bd cAGE|D2 (3FED ADFD|(3EFG AB cdeg|
fd~d2 dcAB|c2Bd cAGE|D2 (3FED EFGB|cAGE EDD2:|
|:fdd^c defg|ad~d2 Adfd|eccB cdef|g2af gedg|
fd~d2 dcAB|c2Bd cAGE|D2 (3FED EFGB|cAGE EDD2:|


